assets/performance-icon.svg

<svg width="91" height="79" xmlns="http://www.w3.org/2000/svg">

 <g>
  <title>background</title>
  <rect fill="none" id="canvas_background" height="402" width="582" y="-1" x="-1"/>
 </g>
 <g>
  <title>Layer 1</title>
  <path id="svg_1" fill="#007fff" d="m44.38283,49.1081c0.3914,0.2155 0.7829,0.3017 1.2179,0.3017c0.435,0 0.8264,-0.0862 1.2179,-0.3017l40.8869,-21.1238c0.8699,-0.4311 1.3919,-1.3364 1.3919,-2.2848c0,-0.9484 -0.522,-1.8537 -1.4354,-2.2848l-40.8869,-21.12371c-0.7394,-0.38799 -1.6529,-0.38799 -2.3923,0l-40.88711,21.12371c-0.86993,0.4311 -1.39189,1.3364 -1.39189,2.2848c0,0.9484 0.52196,1.8537 1.39189,2.2848l40.88711,21.1238zm1.2179,-5.2163l-35.2325,-18.1923l35.2325,-18.19225l35.2323,18.19225l-35.2323,18.1923zm-1.2184,19.0114c0.3915,0.2155 0.7825,0.3017 1.2179,0.3017c0.435,0 0.8261,-0.0862 1.218,-0.3449l40.8869,-21.1237c1.2614,-0.6466 1.7398,-2.2417 1.0874,-3.4918c-0.6525,-1.2502 -2.2618,-1.7244 -3.5232,-1.0778l-39.6691,20.5202l-39.66917,-20.4771c-1.2614,-0.6897 -2.87078,-0.2155 -3.52323,1.0778c-0.65245,1.2933 -0.17399,2.8452 1.08741,3.4918l40.88709,21.1238zm1.2179,14.0968c-0.4349,0 -0.8264,-0.0862 -1.2179,-0.3018l-40.887,-21.1237c-1.2614,-0.6466 -1.78336,-2.2417 -1.08742,-3.4919c0.65245,-1.2501 2.26183,-1.7675 3.52324,-1.0777l39.66908,20.4771l39.6691,-20.5202c1.2614,-0.6467 2.8707,-0.1724 3.5232,1.0777c0.6524,1.2502 0.174,2.8453 -1.0874,3.4919l-40.8869,21.1237c-0.3915,0.2587 -0.783,0.3449 -1.218,0.3449zm0.0001,-39.6613c-1.4354,0 -2.6099,-1.1639 -2.6099,-2.5866l0,-6.4662l-6.524,0c-1.4354,0 -2.6098,-1.1639 -2.6098,-2.5866c0,-1.4226 1.1744,-2.5865 2.6098,-2.5865l6.524,0l0,-6.4669c0,-1.4226 1.1745,-2.5866 2.6099,-2.5866c1.4353,0 2.6098,1.164 2.6098,2.5866l0,6.4669l6.5249,0c1.4354,0 2.6098,1.1639 2.6098,2.5865c0,1.4227 -1.1744,2.5866 -2.6098,2.5866l-6.5249,0l0,6.4662c0,1.4227 -1.1745,2.5866 -2.6098,2.5866z" clip-rule="evenodd" fill-rule="evenodd"/>
  <path id="svg_2" fill="#007fff" d="m44.2854,49.1081l0.8441,-1.533l-0.0203,-0.0112l-0.0206,-0.0106l-0.8032,1.5548zm2.4358,0l-0.8033,-1.5548l-0.0205,0.0106l-0.0203,0.0112l0.8441,1.533zm40.8869,-21.1238l-0.777,-1.568l-0.0132,0.0065l-0.013,0.0068l0.8032,1.5547zm-0.0435,-4.5696l-0.8032,1.5548l0.0279,0.0144l0.0284,0.0134l0.7469,-1.5826zm-40.8869,-21.12371l-0.8131,1.54967l0.0098,0.00509l0.8033,-1.55476zm-2.3923,0l0.8032,1.5548l0.0099,-0.00516l-0.8131,-1.54964zm-40.88711,21.12371l0.77704,1.568l0.01316,-0.0065l0.01305,-0.0067l-0.80325,-1.5548zm0,4.5696l0.80325,-1.5547l-0.01305,-0.0068l-0.01316,-0.0065l-0.77704,1.568zm42.10501,15.9075l-0.8029,1.555l0.8029,0.4145l0.8029,-0.4145l-0.8029,-1.555zm-35.2325,-18.1923l-0.80292,-1.5549l-3.01143,1.5549l3.01143,1.555l0.80292,-1.555zm35.2325,-18.19225l0.8029,-1.55494l-0.8029,-0.41458l-0.8029,0.41458l0.8029,1.55494zm35.2323,18.19225l0.8029,1.555l3.0114,-1.555l-3.0114,-1.5549l-0.8029,1.5549zm-36.4507,37.2037l0.8441,-1.533l-0.0203,-0.0112l-0.0205,-0.0106l-0.8033,1.5548zm2.4359,-0.0432l-0.8033,-1.5547l-0.0829,0.0428l-0.0778,0.0514l0.964,1.4605zm40.8869,-21.1237l-0.7984,-1.5573l-0.0049,0.0026l0.8033,1.5547zm-2.4358,-4.5696l-0.7984,-1.5573l-0.0057,0.003l0.8041,1.5543zm-39.6691,20.5202l-0.8027,1.555l0.8036,0.4148l0.8032,-0.4155l-0.8041,-1.5543zm-39.66917,-20.4771l-0.8396,1.5355l0.01833,0.01l0.01856,0.0096l0.80271,-1.5551zm-2.43582,4.5696l0.80325,-1.5547l-0.00492,-0.0026l-0.79833,1.5573zm40.88709,34.9188l0.8441,-1.5329l-0.0203,-0.0112l-0.0205,-0.0106l-0.8033,1.5547zm-40.887,-21.1237l0.80325,-1.5548l-0.00492,-0.0025l-0.79833,1.5573zm-1.08742,-3.4919l1.52905,0.8512l0.01147,-0.0206l0.01091,-0.0209l-1.55143,-0.8097zm3.52324,-1.0777l-0.8396,1.5354l0.01833,0.0101l0.01856,0.0095l0.80271,-1.555zm39.66908,20.4771l-0.8027,1.555l0.8036,0.4148l0.8032,-0.4155l-0.8041,-1.5543zm39.6691,-20.5202l-0.7984,-1.5573l-0.0057,0.0029l0.8041,1.5544zm2.4358,4.5696l-0.7984,-1.5573l-0.0049,0.0025l0.8033,1.5548zm-40.8869,21.1237l-0.8033,-1.5547l-0.0833,0.043l-0.0782,0.0517l0.9648,1.46zm-3.8278,-48.3692l1.75,0l0,-1.75l-1.75,0l0,1.75zm0,-5.1731l0,1.75l1.75,0l0,-1.75l-1.75,0zm5.2197,0l-1.75,0l0,1.75l1.75,0l0,-1.75zm0,5.1731l0,-1.75l-1.75,0l0,1.75l1.75,0zm-4.6714,22.3552c0.6809,0.3749 1.3693,0.5187 2.062,0.5187l0,-3.5c-0.1773,0 -0.2718,-0.0285 -0.3738,-0.0847l-1.6882,3.066zm2.062,0.5187c0.6927,0 1.381,-0.1438 2.062,-0.5187l-1.6882,-3.066c-0.102,0.0562 -0.1966,0.0847 -0.3738,0.0847l0,3.5zm2.0211,-0.497l40.887,-21.1237l-1.6065,-3.1095l-40.887,21.1237l1.6065,3.1095zm40.8607,-21.1104c1.5023,-0.7445 2.3649,-2.281 2.3649,-3.8529l-3.5,0c0,0.325 -0.1814,0.5991 -0.4189,0.7168l1.554,3.1361zm2.3649,-3.8529c0,-1.5848 -0.8766,-3.1303 -2.4385,-3.8674l-1.4938,3.1652c0.265,0.1251 0.4323,0.3902 0.4323,0.7022l3.5,0zm-2.3821,-3.8396l-40.887,-21.123674l-1.6065,3.109524l40.887,21.12375l1.6065,-3.1096zm-40.8771,-21.118548c-1.2486,-0.655136 -2.7699,-0.655136 -4.0185,0l1.6262,3.099278c0.2303,-0.12084 0.5358,-0.12084 0.7661,0l1.6262,-3.099278zm-4.0087,-0.005127l-40.88705,21.123675l1.60649,3.1096l40.88706,-21.12374l-1.6065,-3.109535zm-40.86084,21.110475c-1.50231,0.7444 -2.364862,2.2809 -2.364862,3.8528l3.500002,0c0,-0.3249 0.18136,-0.599 0.41893,-0.7168l-1.55407,-3.136zm-2.364862,3.8528c0,1.5719 0.862552,3.1084 2.364862,3.8529l1.55407,-3.1361c-0.23757,-0.1177 -0.41893,-0.3918 -0.41893,-0.7168l-3.500002,0zm2.338652,3.8396l40.88705,21.1237l1.6065,-3.1095l-40.88706,-21.1237l-1.60649,3.1095zm43.71115,12.7978l-35.2325,-18.1923l-1.60582,3.1099l35.23252,18.1923l1.6058,-3.1099zm-35.2325,-15.0824l35.2325,-18.1923l-1.6058,-3.10989l-35.23252,18.19229l1.60582,3.1099zm33.6267,-18.1923l35.2323,18.1923l1.6058,-3.1099l-35.2323,-18.19229l-1.6058,3.10989zm35.2323,15.0824l-35.2323,18.1923l1.6058,3.1099l35.2323,-18.1923l-1.6058,-3.1099zm-36.4918,40.2915c0.6808,0.3749 1.3687,0.5188 2.0619,0.5188l0,-3.5c-0.1775,0 -0.2717,-0.0285 -0.3738,-0.0847l-1.6881,3.0659zm2.0619,0.5188c0.7013,0 1.4462,-0.1487 2.1819,-0.6343l-1.9279,-2.9211c-0.0413,0.0272 -0.0648,0.0351 -0.0818,0.0396c-0.0216,0.0058 -0.0709,0.0158 -0.1722,0.0158l0,3.5zm2.0212,-0.5401l40.8869,-21.1237l-1.6065,-3.1095l-40.8869,21.1237l1.6065,3.1095zm40.882,-21.1212c2.1536,-1.104 2.9279,-3.7752 1.8405,-5.8588l-3.1028,1.6193c0.2174,0.4167 0.0349,0.9356 -0.3344,1.1249l1.5967,3.1146zm1.8405,-5.8588c-1.1191,-2.1443 -3.7984,-2.8889 -5.873,-1.8254l1.5967,3.1146c0.4482,-0.2298 0.9876,-0.0259 1.1735,0.3301l3.1028,-1.6193zm-5.8787,-1.8224l-39.669,20.5201l1.6081,3.1087l39.669,-20.5201l-1.6081,-3.1087zm-38.0622,20.5194l-39.66926,-20.477l-1.60542,3.1101l39.66918,20.477l1.6055,-3.1101zm-39.63237,-20.4574c-2.10584,-1.1515 -4.81526,-0.3753 -5.925265,1.8249l3.124865,1.5765c0.1949,-0.3863 0.70423,-0.5585 1.1212,-0.3305l1.6792,-3.0709zm-5.925265,1.8249c-1.065039,2.1112 -0.306441,4.7312 1.851525,5.8374l1.59665,-3.1146c-0.36484,-0.187 -0.56317,-0.6709 -0.32331,-1.1463l-3.124865,-1.5765zm1.846605,5.8349l40.88713,21.1237l1.6065,-3.1095l-40.88714,-21.1237l-1.60649,3.1095zm42.90823,31.9158c-0.1772,0 -0.2718,-0.0286 -0.3738,-0.0847l-1.6881,3.0659c0.6809,0.3749 1.3692,0.5188 2.0619,0.5188l0,-3.5zm-0.4146,-0.1065l-40.88705,-21.1237l-1.6065,3.1095l40.88705,21.1237l1.6065,-3.1095zm-40.89197,-21.1263c-0.41602,-0.2132 -0.55189,-0.7327 -0.3567,-1.0834l-3.058092,-1.7023c-1.196704,2.1497 -0.288651,4.8203 1.818132,5.9003l1.59666,-3.1146zm-0.33432,-1.1249c0.20936,-0.4011 0.74971,-0.5611 1.13221,-0.352l1.6792,-3.0708c-2.14031,-1.1704 -4.81872,-0.2957 -5.914266,1.8035l3.102856,1.6193zm1.1691,-0.3324l39.66909,20.4771l1.6055,-3.1101l-39.66917,-20.477l-1.60542,3.11zm41.27589,20.4764l39.669,-20.5202l-1.6081,-3.1087l-39.669,20.5202l1.6081,3.1087zm39.6633,-20.5172c0.4482,-0.2298 0.9876,-0.026 1.1735,0.3301l3.1028,-1.6193c-1.1191,-2.1443 -3.7984,-2.8889 -5.873,-1.8254l1.5967,3.1146zm1.1735,0.3301c0.2174,0.4167 0.0349,0.9356 -0.3344,1.1249l1.5967,3.1146c2.1536,-1.104 2.9279,-3.7752 1.8405,-5.8588l-3.1028,1.6193zm-0.3393,1.1274l-40.8869,21.1238l1.6065,3.1095l40.8869,-21.1237l-1.6065,-3.1096zm-41.0484,21.2185c-0.0405,0.0267 -0.0637,0.0345 -0.0807,0.0391c-0.0218,0.0058 -0.0711,0.0158 -0.1725,0.0158l0,3.5c0.7007,0 1.4467,-0.1485 2.1827,-0.6348l-1.9295,-2.9201zm-0.2531,-39.6064c-0.4837,0 -0.8599,-0.3952 -0.8599,-0.8366l-3.5,0c0,2.4039 1.9727,4.3366 4.3599,4.3366l0,-3.5zm-0.8599,-0.8366l0,-6.4662l-3.5,0l0,6.4662l3.5,0zm-1.75,-8.2162l-6.524,0l0,3.5l6.524,0l0,-3.5zm-6.524,0c-0.4837,0 -0.8598,-0.3952 -0.8598,-0.8366l-3.5,0c0,2.4039 1.9727,4.3366 4.3598,4.3366l0,-3.5zm-0.8598,-0.8366c0,-0.4414 0.3761,-0.8365 0.8598,-0.8365l0,-3.5c-2.3871,0 -4.3598,1.9327 -4.3598,4.3365l3.5,0zm0.8598,-0.8365l6.524,0l0,-3.5l-6.524,0l0,3.5zm8.274,-1.75l0,-6.4669l-3.5,0l0,6.4669l3.5,0zm0,-6.4669c0,-0.4414 0.3762,-0.8366 0.8599,-0.8366l0,-3.5c-2.3872,0 -4.3599,1.9328 -4.3599,4.3366l3.5,0zm0.8599,-0.8366c0.4836,0 0.8598,0.3952 0.8598,0.8366l3.5,0c0,-2.4038 -1.9727,-4.3366 -4.3598,-4.3366l0,3.5zm0.8598,0.8366l0,6.4669l3.5,0l0,-6.4669l-3.5,0zm1.75,8.2169l6.5249,0l0,-3.5l-6.5249,0l0,3.5zm6.5249,0c0.4837,0 0.8598,0.3951 0.8598,0.8365l3.5,0c0,-2.4038 -1.9727,-4.3365 -4.3598,-4.3365l0,3.5zm0.8598,0.8365c0,0.4414 -0.3761,0.8366 -0.8598,0.8366l0,3.5c2.3871,0 4.3598,-1.9327 4.3598,-4.3366l-3.5,0zm-0.8598,0.8366l-6.5249,0l0,3.5l6.5249,0l0,-3.5zm-8.2749,1.75l0,6.4662l3.5,0l0,-6.4662l-3.5,0zm0,6.4662c0,0.4414 -0.3762,0.8366 -0.8598,0.8366l0,3.5c2.3871,0 4.3598,-1.9327 4.3598,-4.3366l-3.5,0z"/>
 </g>
</svg>

<svg width="91" height="79" viewBox="0 0 91 79" fill="none" xmlns="http://www.w3.org/2000/svg">
<path fill-rule="evenodd" clip-rule="evenodd" d="M44.2854 49.1081C44.6768 49.3236 45.0683 49.4098 45.5033 49.4098C45.9383 49.4098 46.3297 49.3236 46.7212 49.1081L87.6081 27.9843C88.478 27.5532 89 26.6479 89 25.6995C89 24.7511 88.478 23.8458 87.5646 23.4147L46.6777 2.29099C45.9383 1.903 45.0248 1.903 44.2854 2.29099L3.39829 23.4147C2.52836 23.8458 2.0064 24.7511 2.0064 25.6995C2.0064 26.6479 2.52836 27.5532 3.39829 27.9843L44.2854 49.1081ZM45.5033 43.8918L10.2708 25.6995L45.5033 7.50725L80.7356 25.6995L45.5033 43.8918ZM44.2849 62.9032C44.6764 63.1187 45.0674 63.2049 45.5028 63.2049C45.9378 63.2049 46.3289 63.1187 46.7208 62.86L87.6077 41.7363C88.8691 41.0897 89.3475 39.4946 88.6951 38.2445C88.0426 36.9943 86.4333 36.5201 85.1719 37.1667L45.5028 57.6869L5.83363 37.2098C4.57223 36.5201 2.96285 36.9943 2.3104 38.2876C1.65795 39.5809 2.13641 41.1328 3.39781 41.7794L44.2849 62.9032ZM45.5028 77C45.0679 77 44.6764 76.9138 44.2849 76.6982L3.3979 55.5745C2.1365 54.9279 1.61454 53.3328 2.31048 52.0826C2.96293 50.8325 4.57231 50.3151 5.83372 51.0049L45.5028 71.482L85.1719 50.9618C86.4333 50.3151 88.0426 50.7894 88.6951 52.0395C89.3475 53.2897 88.8691 54.8848 87.6077 55.5314L46.7208 76.6551C46.3293 76.9138 45.9378 77 45.5028 77ZM45.5029 37.3387C44.0675 37.3387 42.893 36.1748 42.893 34.7521V28.2859H36.369C34.9336 28.2859 33.7592 27.122 33.7592 25.6993C33.7592 24.2767 34.9336 23.1128 36.369 23.1128H42.893V16.6459C42.893 15.2233 44.0675 14.0593 45.5029 14.0593C46.9382 14.0593 48.1127 15.2233 48.1127 16.6459V23.1128H54.6376C56.073 23.1128 57.2474 24.2767 57.2474 25.6993C57.2474 27.122 56.073 28.2859 54.6376 28.2859H48.1127V34.7521C48.1127 36.1748 46.9382 37.3387 45.5029 37.3387Z" fill="#F8B133"/>
<path d="M44.2854 49.1081L45.1295 47.5751L45.1092 47.5639L45.0886 47.5533L44.2854 49.1081ZM46.7212 49.1081L45.9179 47.5533L45.8974 47.5639L45.8771 47.5751L46.7212 49.1081ZM87.6081 27.9843L86.8311 26.4163L86.8179 26.4228L86.8049 26.4296L87.6081 27.9843ZM87.5646 23.4147L86.7614 24.9695L86.7893 24.9839L86.8177 24.9973L87.5646 23.4147ZM46.6777 2.29099L45.8646 3.84066L45.8744 3.84575L46.6777 2.29099ZM44.2854 2.29099L45.0886 3.84579L45.0985 3.84063L44.2854 2.29099ZM3.39829 23.4147L4.17533 24.9827L4.18849 24.9762L4.20154 24.9695L3.39829 23.4147ZM3.39829 27.9843L4.20154 26.4296L4.18849 26.4228L4.17533 26.4163L3.39829 27.9843ZM45.5033 43.8918L44.7004 45.4468L45.5033 45.8613L46.3062 45.4468L45.5033 43.8918ZM10.2708 25.6995L9.46788 24.1446L6.45645 25.6995L9.46788 27.2545L10.2708 25.6995ZM45.5033 7.50725L46.3062 5.95231L45.5033 5.53773L44.7004 5.95231L45.5033 7.50725ZM80.7356 25.6995L81.5385 27.2545L84.5499 25.6995L81.5385 24.1446L80.7356 25.6995ZM44.2849 62.9032L45.129 61.3702L45.1087 61.359L45.0882 61.3484L44.2849 62.9032ZM46.7208 62.86L45.9175 61.3053L45.8346 61.3481L45.7568 61.3995L46.7208 62.86ZM87.6077 41.7363L86.8093 40.179L86.8044 40.1816L87.6077 41.7363ZM85.1719 37.1667L84.3735 35.6094L84.3678 35.6124L85.1719 37.1667ZM45.5028 57.6869L44.7001 59.2419L45.5037 59.6567L46.3069 59.2412L45.5028 57.6869ZM5.83363 37.2098L4.99403 38.7453L5.01236 38.7553L5.03092 38.7649L5.83363 37.2098ZM3.39781 41.7794L4.20106 40.2247L4.19614 40.2221L3.39781 41.7794ZM44.2849 76.6982L45.129 75.1653L45.1087 75.1541L45.0882 75.1435L44.2849 76.6982ZM3.3979 55.5745L4.20115 54.0197L4.19623 54.0172L3.3979 55.5745ZM2.31048 52.0826L3.83953 52.9338L3.851 52.9132L3.86191 52.8923L2.31048 52.0826ZM5.83372 51.0049L4.99412 52.5403L5.01245 52.5504L5.03101 52.5599L5.83372 51.0049ZM45.5028 71.482L44.7001 73.037L45.5037 73.4518L46.3069 73.0363L45.5028 71.482ZM85.1719 50.9618L84.3735 49.4045L84.3678 49.4074L85.1719 50.9618ZM87.6077 55.5314L86.8093 53.9741L86.8044 53.9766L87.6077 55.5314ZM46.7208 76.6551L45.9175 75.1004L45.8342 75.1434L45.756 75.1951L46.7208 76.6551ZM42.893 28.2859H44.643V26.5359H42.893V28.2859ZM42.893 23.1128V24.8628H44.643V23.1128H42.893ZM48.1127 23.1128H46.3627V24.8628H48.1127V23.1128ZM48.1127 28.2859V26.5359H46.3627V28.2859H48.1127ZM43.4413 50.6411C44.1222 51.016 44.8106 51.1598 45.5033 51.1598V47.6598C45.326 47.6598 45.2315 47.6313 45.1295 47.5751L43.4413 50.6411ZM45.5033 51.1598C46.196 51.1598 46.8843 51.016 47.5653 50.6411L45.8771 47.5751C45.7751 47.6313 45.6805 47.6598 45.5033 47.6598V51.1598ZM47.5244 50.6628L88.4114 29.5391L86.8049 26.4296L45.9179 47.5533L47.5244 50.6628ZM88.3851 29.5524C89.8874 28.8079 90.75 27.2714 90.75 25.6995H87.25C87.25 26.0245 87.0686 26.2986 86.8311 26.4163L88.3851 29.5524ZM90.75 25.6995C90.75 24.1147 89.8734 22.5692 88.3115 21.8321L86.8177 24.9973C87.0827 25.1224 87.25 25.3875 87.25 25.6995H90.75ZM88.3679 21.8599L47.4809 0.736226L45.8744 3.84575L86.7614 24.9695L88.3679 21.8599ZM47.4908 0.741352C46.2422 0.0862158 44.7209 0.0862158 43.4723 0.741352L45.0985 3.84063C45.3288 3.71979 45.6343 3.71979 45.8646 3.84063L47.4908 0.741352ZM43.4821 0.736225L2.59505 21.8599L4.20154 24.9695L45.0886 3.84576L43.4821 0.736225ZM2.62126 21.8467C1.11895 22.5911 0.256398 24.1276 0.256398 25.6995H3.7564C3.7564 25.3746 3.93776 25.1005 4.17533 24.9827L2.62126 21.8467ZM0.256398 25.6995C0.256398 27.2714 1.11895 28.8079 2.62126 29.5524L4.17533 26.4163C3.93776 26.2986 3.7564 26.0245 3.7564 25.6995H0.256398ZM2.59505 29.5391L43.4821 50.6628L45.0886 47.5533L4.20154 26.4296L2.59505 29.5391ZM46.3062 42.3369L11.0737 24.1446L9.46788 27.2545L44.7004 45.4468L46.3062 42.3369ZM11.0737 27.2545L46.3062 9.0622L44.7004 5.95231L9.46788 24.1446L11.0737 27.2545ZM44.7004 9.0622L79.9327 27.2545L81.5385 24.1446L46.3062 5.95231L44.7004 9.0622ZM79.9327 24.1446L44.7004 42.3369L46.3062 45.4468L81.5385 27.2545L79.9327 24.1446ZM43.4409 64.4361C44.1217 64.811 44.8096 64.9549 45.5028 64.9549V61.4549C45.3253 61.4549 45.2311 61.4264 45.129 61.3702L43.4409 64.4361ZM45.5028 64.9549C46.2041 64.9549 46.949 64.8062 47.6847 64.3206L45.7568 61.3995C45.7155 61.4267 45.692 61.4346 45.675 61.4391C45.6534 61.4449 45.6041 61.4549 45.5028 61.4549V64.9549ZM47.524 64.4148L88.4109 43.2911L86.8044 40.1816L45.9175 61.3053L47.524 64.4148ZM88.406 43.2936C90.5596 42.1896 91.3339 39.5184 90.2465 37.4348L87.1437 39.0541C87.3611 39.4708 87.1786 39.9897 86.8093 40.179L88.406 43.2936ZM90.2465 37.4348C89.1274 35.2905 86.4481 34.5459 84.3735 35.6094L85.9702 38.724C86.4184 38.4942 86.9578 38.6981 87.1437 39.0541L90.2465 37.4348ZM84.3678 35.6124L44.6988 56.1325L46.3069 59.2412L85.9759 38.7211L84.3678 35.6124ZM46.3056 56.1318L6.63634 35.6548L5.03092 38.7649L44.7001 59.2419L46.3056 56.1318ZM6.67323 35.6744C4.56739 34.5229 1.85797 35.2991 0.747965 37.4993L3.87283 39.0758C4.06773 38.6895 4.57706 38.5173 4.99403 38.7453L6.67323 35.6744ZM0.747965 37.4993C-0.317074 39.6105 0.441524 42.2305 2.59949 43.3367L4.19614 40.2221C3.8313 40.0351 3.63297 39.5512 3.87283 39.0758L0.747965 37.4993ZM2.59457 43.3342L43.4817 64.4579L45.0882 61.3484L4.20106 40.2247L2.59457 43.3342ZM45.5028 75.25C45.3256 75.25 45.231 75.2214 45.129 75.1653L43.4409 78.2312C44.1218 78.6061 44.8101 78.75 45.5028 78.75V75.25ZM45.0882 75.1435L4.20115 54.0198L2.59465 57.1293L43.4817 78.253L45.0882 75.1435ZM4.19623 54.0172C3.78021 53.804 3.64434 53.2845 3.83953 52.9338L0.781438 51.2315C-0.415266 53.3812 0.492787 56.0518 2.59957 57.1318L4.19623 54.0172ZM3.86191 52.8923C4.07127 52.4912 4.61162 52.3312 4.99412 52.5403L6.67332 49.4695C4.53301 48.2991 1.8546 49.1738 0.759054 51.273L3.86191 52.8923ZM5.03101 52.5599L44.7001 73.037L46.3056 69.9269L6.63643 49.4499L5.03101 52.5599ZM46.3069 73.0363L85.9759 52.5161L84.3678 49.4074L44.6988 69.9276L46.3069 73.0363ZM85.9702 52.5191C86.4184 52.2893 86.9578 52.4931 87.1437 52.8492L90.2465 51.2299C89.1274 49.0856 86.4481 48.341 84.3735 49.4045L85.9702 52.5191ZM87.1437 52.8492C87.3611 53.2659 87.1786 53.7848 86.8093 53.9741L88.406 57.0887C90.5596 55.9847 91.3339 53.3135 90.2465 51.2299L87.1437 52.8492ZM86.8044 53.9766L45.9175 75.1004L47.524 78.2099L88.4109 57.0862L86.8044 53.9766ZM45.756 75.1951C45.7155 75.2218 45.6923 75.2296 45.6753 75.2342C45.6535 75.24 45.6042 75.25 45.5028 75.25V78.75C46.2035 78.75 46.9495 78.6015 47.6855 78.1152L45.756 75.1951ZM45.5029 35.5887C45.0192 35.5887 44.643 35.1935 44.643 34.7521H41.143C41.143 37.156 43.1157 39.0887 45.5029 39.0887V35.5887ZM44.643 34.7521V28.2859H41.143V34.7521H44.643ZM42.893 26.5359H36.369V30.0359H42.893V26.5359ZM36.369 26.5359C35.8853 26.5359 35.5092 26.1407 35.5092 25.6993H32.0092C32.0092 28.1032 33.9819 30.0359 36.369 30.0359V26.5359ZM35.5092 25.6993C35.5092 25.2579 35.8853 24.8628 36.369 24.8628V21.3628C33.9819 21.3628 32.0092 23.2955 32.0092 25.6993H35.5092ZM36.369 24.8628H42.893V21.3628H36.369V24.8628ZM44.643 23.1128V16.6459H41.143V23.1128H44.643ZM44.643 16.6459C44.643 16.2045 45.0192 15.8093 45.5029 15.8093V12.3093C43.1157 12.3093 41.143 14.2421 41.143 16.6459H44.643ZM45.5029 15.8093C45.9865 15.8093 46.3627 16.2045 46.3627 16.6459H49.8627C49.8627 14.2421 47.89 12.3093 45.5029 12.3093V15.8093ZM46.3627 16.6459V23.1128H49.8627V16.6459H46.3627ZM48.1127 24.8628H54.6376V21.3628H48.1127V24.8628ZM54.6376 24.8628C55.1213 24.8628 55.4974 25.2579 55.4974 25.6993H58.9974C58.9974 23.2955 57.0247 21.3628 54.6376 21.3628V24.8628ZM55.4974 25.6993C55.4974 26.1407 55.1213 26.5359 54.6376 26.5359V30.0359C57.0247 30.0359 58.9974 28.1032 58.9974 25.6993H55.4974ZM54.6376 26.5359H48.1127V30.0359H54.6376V26.5359ZM46.3627 28.2859V34.7521H49.8627V28.2859H46.3627ZM46.3627 34.7521C46.3627 35.1935 45.9865 35.5887 45.5029 35.5887V39.0887C47.89 39.0887 49.8627 37.156 49.8627 34.7521H46.3627Z" fill="#222222"/>
</svg>
